X: 29
T: Steve's Birthday Jig
C: Armand Aromin
H: 3/19/05
M: 6/8
L: 1/8
R: Jig
K: Dmaj
f3 fga | afd BAF | D3 FDD | FGA B2 A |
f3 fga | afd BAF | DFA dBc | d3 d2 e :|
f3 add | bdd add | f3 afd | efe ede |
f3 add | bdd add | faf dBc | d3 d2 e :|
